ukui-icon-theme-default/scalable/actions/view-sort-ascending-symbolic.svg

<?xml version="1.0" encoding="iso-8859-1"?>
<!-- Generator: Adobe Illustrator 24.0.0, SVG Export Plug-In . SVG Version: 6.00 Build 0)  -->
<svg version="1.1" id="v" xmlns="http://www.w3.org/2000/svg" xmlns:xlink="http://www.w3.org/1999/xlink" x="0px" y="0px"
	 viewBox="0 0 16 16" style="enable-background:new 0 0 16 16;" xml:space="preserve">
<title>16</title>
<g id="_16">
	<g>
		<path style="fill:#808080;" d="M5,13v1H4v-1H5 M5,12H4c-0.552,0-1,0.448-1,1v1c0,0.552,0.448,1,1,1h1c0.552,0,1-0.448,1-1v-1
			C6,12.448,5.552,12,5,12z"/>
	</g>
	<g>
		<path style="fill:#808080;" d="M5,8v1H4V8H5 M5,7H4C3.448,7,3,7.448,3,8v1c0,0.552,0.448,1,1,1h1c0.552,0,1-0.448,1-1V8
			C6,7.448,5.552,7,5,7z"/>
	</g>
	<g>
		<path style="fill:#808080;" d="M5,3v1H4V3H5 M5,2H4C3.448,2,3,2.448,3,3v1c0,0.552,0.448,1,1,1h1c0.552,0,1-0.448,1-1V3
			C6,2.448,5.552,2,5,2z"/>
	</g>
	<polyline style="fill:none;stroke:#808080;stroke-linecap:round;stroke-linejoin:round;" points="7.5,6.5 10.5,2.5 13.5,6.5 	"/>
	<line style="fill:none;stroke:#808080;stroke-linecap:round;stroke-linejoin:round;" x1="10.5" y1="2.5" x2="10.5" y2="14.5"/>
</g>
</svg>

<svg id="v" xmlns="http://www.w3.org/2000/svg" viewBox="0 0 16 16"><defs><style>.cls-1{isolation:isolate;}.cls-2{fill:gray;}.cls-3{fill:none;stroke:gray;stroke-linecap:round;stroke-linejoin:round;}</style></defs><title>16</title><g id="_16" data-name="16"><g class="cls-1"><path class="cls-2" d="M5,13v1H4V13H5m0-1H4a1,1,0,0,0-1,1v1a1,1,0,0,0,1,1H5a1,1,0,0,0,1-1V13a1,1,0,0,0-1-1Z"/></g><g class="cls-1"><path class="cls-2" d="M5,8V9H4V8H5M5,7H4A1,1,0,0,0,3,8V9a1,1,0,0,0,1,1H5A1,1,0,0,0,6,9V8A1,1,0,0,0,5,7Z"/></g><g class="cls-1"><path class="cls-2" d="M5,3V4H4V3H5M5,2H4A1,1,0,0,0,3,3V4A1,1,0,0,0,4,5H5A1,1,0,0,0,6,4V3A1,1,0,0,0,5,2Z"/></g><polyline class="cls-3" points="7.5 6.5 10.5 2.5 13.5 6.5"/><line class="cls-3" x1="10.5" y1="2.5" x2="10.5" y2="14.5"/></g></svg>
